static/img/in-field/checkbox-spec-default.svg

<svg fill="none" height="58" viewBox="0 0 182 58" width="182" xmlns="http://www.w3.org/2000/svg"><path d="m25.4688 33.6912h-5.9883v-1.2598l2.1504-2.1738c.6367-.6524 1.0527-1.1035 1.248-1.3535.1953-.254.3359-.4883.4219-.7032.0859-.2148.1289-.4375.1289-.6679 0-.3438-.0957-.5997-.2871-.7676-.1875-.168-.4395-.252-.7559-.252-.332 0-.6543.0762-.9668.2285-.3125.1524-.6387.3692-.9785.6504l-.9844-1.166c.4219-.3594.7715-.6133 1.0489-.7617.2773-.1484.58-.2617.9082-.3398.3281-.0821.6953-.1231 1.1015-.1231.5352 0 1.0078.0977 1.418.293s.7285.4687.9551.8203c.2265.3516.3398.7539.3398 1.207 0 .3946-.0703.7656-.2109 1.1133-.1367.3438-.3516.6973-.6446 1.0605-.289.3633-.8007.8809-1.5351 1.5528l-1.1016 1.0371v.082h3.7325zm6.9768-1.7754h-1.0313v1.7754h-1.7695v-1.7754h-3.6563v-1.2598l3.7559-5.5312h1.6699v5.3847h1.0313zm-2.8008-1.4063v-1.4531c0-.2422.0098-.5938.0293-1.0547s.0351-.7285.0469-.8027h-.0469c-.1445.3203-.3184.6328-.5215.9375l-1.5703 2.373zm5.9339 3.2988c-.7696 0-1.375-.2988-1.8165-.8964-.4375-.5977-.6562-1.4258-.6562-2.4844 0-1.0742.2227-1.9102.668-2.5078.4492-.6016 1.0664-.9024 1.8515-.9024.8242 0 1.4532.3203 1.8867.961h.0586c-.0898-.4883-.1347-.9239-.1347-1.3067v-2.0976h1.7929v9.1172h-1.371l-.3458-.8496h-.0761c-.4063.6445-1.0254.9667-1.8574.9667zm.6269-1.4238c.457 0 .791-.1328 1.002-.3984.2148-.2656.332-.7168.3515-1.3535v-.1934c0-.7031-.1094-1.207-.3281-1.5117-.2148-.3047-.5664-.457-1.0547-.457-.3984 0-.709.1699-.9316.5097-.2188.336-.3282.8262-.3282 1.4707 0 .6446.1114 1.1289.334 1.4532.2227.3203.541.4804.9551.4804zm8.4182 1.4238c-.7695 0-1.373-.2792-1.8105-.8378h-.0938c.0625.5468.0938.8632.0938.9492v2.6543h-1.7871v-9.4336h1.4531l.252.8496h.082c.418-.6484 1.0371-.9727 1.8574-.9727.7735 0 1.3789.2989 1.8164.8965.4375.5977.6563 1.4278.6563 2.4903 0 .6992-.1035 1.3066-.3106 1.8222-.2031.5156-.4941.9082-.873 1.1778-.3789.2695-.8242.4042-1.336.4042zm-.5273-5.3613c-.4414 0-.7637.1367-.9668.4102-.2031.2695-.3086.7168-.3164 1.3418v.1933c0 .7032.1035 1.2071.3105 1.5118.211.3046.543.457.9961.457.8008 0 1.2012-.6602 1.2012-1.9805 0-.6445-.0996-1.1269-.2988-1.4473-.1953-.3242-.5039-.4863-.9258-.4863z" fill="#4091d2"/><path d="m62 17.949h-9v21.9347h9" stroke="#4091d2"/><path clip-rule="evenodd" d="m86.6667 16.9165h18.6663c1.48 0 2.667 1.2 2.667 2.6667v18.6666c0 1.4667-1.187 2.6667-2.667 2.6667h-18.6663c-1.48 0-2.6667-1.2-2.6667-2.6667v-18.6666c0-1.4667 1.1867-2.6667 2.6667-2.6667zm0 12 6.6666 6.6667 11.9997-12-1.88-1.8934-10.1197 10.12-4.7866-4.7733z" fill="#0063a3" fill-rule="evenodd"/><path clip-rule="evenodd" d="m86.6667 28.9165 6.6666 6.6667 11.9997-12-1.88-1.8934-10.1197 10.12-4.7866-4.7733z" fill="#fff" fill-rule="evenodd"/><path d="m130 .833252h9v55.833748h-9" stroke="#4091d2"/><path d="m152.598 23.6824c.828 0 1.486.2324 1.974.6972.492.4649.739 1.1016.739 1.9102 0 .957-.295 1.6934-.885 2.209s-1.434.7734-2.531.7734c-.954 0-1.723-.1543-2.309-.4629v-1.5644c.309.164.668.2988 1.078.4043.41.1015.799.1523 1.166.1523 1.106 0 1.658-.4531 1.658-1.3594 0-.8632-.572-1.2949-1.717-1.2949-.207 0-.435.0215-.685.0645-.25.039-.453.082-.609.1289l-.721-.3867.322-4.3653h4.647v1.5352h-3.059l-.158 1.6816.205-.041c.238-.0547.533-.082.885-.082zm3.607 1.834c0-1.6954.358-2.9571 1.073-3.7852.718-.8281 1.793-1.2422 3.222-1.2422.489 0 .871.0293 1.149.0879v1.4473c-.348-.0782-.692-.1172-1.032-.1172-.621 0-1.128.0937-1.523.2812-.391.1875-.684.4649-.879.8321s-.31.8886-.346 1.5644h.077c.386-.664 1.005-.9961 1.857-.9961.766 0 1.365.2403 1.799.7207.433.4805.65 1.1446.65 1.9922 0 .9141-.258 1.6387-.773 2.1738-.516.5313-1.231.7969-2.145.7969-.633 0-1.185-.1465-1.658-.4394-.469-.293-.832-.7207-1.09-1.2832-.254-.5625-.381-1.2403-.381-2.0332zm3.094 2.3086c.387 0 .684-.129.891-.3868.207-.2617.31-.6328.31-1.1132 0-.418-.097-.7461-.293-.9844-.191-.2422-.482-.3633-.873-.3633-.367 0-.681.1191-.943.3574-.258.2383-.387.5156-.387.832 0 .4649.121.8575.363 1.1778.247.3203.557.4805.932.4805zm6.28 1.4472c-.77 0-1.375-.2988-1.817-.8965-.437-.5976-.656-1.4257-.656-2.4843 0-1.0743.223-1.9102.668-2.5079.449-.6015 1.066-.9023 1.852-.9023.824 0 1.453.3203 1.886.9609h.059c-.09-.4882-.135-.9238-.135-1.3066v-2.0977h1.793v9.1172h-1.371l-.346-.8496h-.076c-.406.6446-1.025.9668-1.857.9668zm.627-1.4238c.457 0 .791-.1328 1.002-.3984.214-.2657.332-.7168.351-1.3536v-.1933c0-.7031-.109-1.2071-.328-1.5117-.215-.3047-.566-.4571-1.055-.4571-.398 0-.709.1699-.931.5098-.219.3359-.328.8262-.328 1.4707s.111 1.1289.334 1.4531c.222.3203.541.4805.955.4805zm8.418 1.4238c-.77 0-1.373-.2793-1.811-.8379h-.093c.062.5469.093.8633.093.9492v2.6543h-1.787v-9.4336h1.453l.252.8497h.082c.418-.6485 1.037-.9727 1.858-.9727.773 0 1.379.2988 1.816.8965.438.5976.656 1.4277.656 2.4902 0 .6992-.103 1.3067-.31 1.8223-.203.5156-.494.9082-.873 1.1777-.379.2696-.824.4043-1.336.4043zm-.527-5.3613c-.442 0-.764.1367-.967.4101-.203.2696-.309.7168-.317 1.3418v.1934c0 .7031.104 1.207.311 1.5117.211.3047.543.4571.996.4571.801 0 1.201-.6602 1.201-1.9805 0-.6445-.099-1.127-.299-1.4473-.195-.3242-.504-.4863-.925-.4863z" fill="#4091d2"/></svg>

<svg width="182" height="58" viewBox="0 0 182 58" fill="none" xmlns="http://www.w3.org/2000/svg"><path d="M25.4688 33.6912H19.4805V32.4314L21.6309 30.2576C22.2676 29.6052 22.6836 29.1541 22.8789 28.9041C23.0742 28.6501 23.2148 28.4158 23.3008 28.2009C23.3867 27.9861 23.4297 27.7634 23.4297 27.533C23.4297 27.1892 23.334 26.9333 23.1426 26.7654C22.9551 26.5974 22.7031 26.5134 22.3867 26.5134C22.0547 26.5134 21.7324 26.5896 21.4199 26.7419C21.1074 26.8943 20.7812 27.1111 20.4414 27.3923L19.457 26.2263C19.8789 25.8669 20.2285 25.613 20.5059 25.4646C20.7832 25.3162 21.0859 25.2029 21.4141 25.1248C21.7422 25.0427 22.1094 25.0017 22.5156 25.0017C23.0508 25.0017 23.5234 25.0994 23.9336 25.2947C24.3438 25.49 24.6621 25.7634 24.8887 26.115C25.1152 26.4666 25.2285 26.8689 25.2285 27.322C25.2285 27.7166 25.1582 28.0876 25.0176 28.4353C24.8809 28.7791 24.666 29.1326 24.373 29.4958C24.084 29.8591 23.5723 30.3767 22.8379 31.0486L21.7363 32.0857V32.1677H25.4688V33.6912ZM32.4456 31.9158H31.4143V33.6912H29.6448V31.9158H25.9885V30.656L29.7444 25.1248H31.4143V30.5095H32.4456V31.9158ZM29.6448 30.5095V29.0564C29.6448 28.8142 29.6546 28.4626 29.6741 28.0017C29.6936 27.5408 29.7092 27.2732 29.721 27.199H29.6741C29.5296 27.5193 29.3557 27.8318 29.1526 28.1365L27.5823 30.5095H29.6448ZM35.5787 33.8083C34.8091 33.8083 34.2037 33.5095 33.7622 32.9119C33.3247 32.3142 33.106 31.4861 33.106 30.4275C33.106 29.3533 33.3287 28.5173 33.774 27.9197C34.2232 27.3181 34.8404 27.0173 35.6255 27.0173C36.4497 27.0173 37.0787 27.3376 37.5122 27.9783H37.5708C37.481 27.49 37.4361 27.0544 37.4361 26.6716V24.574H39.229V33.6912H37.858L37.5122 32.8416H37.4361C37.0298 33.4861 36.4107 33.8083 35.5787 33.8083ZM36.2056 32.3845C36.6626 32.3845 36.9966 32.2517 37.2076 31.9861C37.4224 31.7205 37.5396 31.2693 37.5591 30.6326V30.4392C37.5591 29.7361 37.4497 29.2322 37.231 28.9275C37.0162 28.6228 36.6646 28.4705 36.1763 28.4705C35.7779 28.4705 35.4673 28.6404 35.2447 28.9802C35.0259 29.3162 34.9165 29.8064 34.9165 30.4509C34.9165 31.0955 35.0279 31.5798 35.2505 31.9041C35.4732 32.2244 35.7915 32.3845 36.2056 32.3845ZM44.6238 33.8083C43.8543 33.8083 43.2508 33.5291 42.8133 32.9705H42.7195C42.782 33.5173 42.8133 33.8337 42.8133 33.9197V36.574H41.0262V27.1404H42.4793L42.7313 27.99H42.8133C43.2313 27.3416 43.8504 27.0173 44.6707 27.0173C45.4442 27.0173 46.0496 27.3162 46.4871 27.9138C46.9246 28.5115 47.1434 29.3416 47.1434 30.4041C47.1434 31.1033 47.0399 31.7107 46.8328 32.2263C46.6297 32.7419 46.3387 33.1345 45.9598 33.4041C45.5809 33.6736 45.1356 33.8083 44.6238 33.8083ZM44.0965 28.447C43.6551 28.447 43.3328 28.5837 43.1297 28.8572C42.9266 29.1267 42.8211 29.574 42.8133 30.199V30.3923C42.8133 31.0955 42.9168 31.5994 43.1238 31.9041C43.3348 32.2087 43.6668 32.3611 44.1199 32.3611C44.9207 32.3611 45.3211 31.7009 45.3211 30.3806C45.3211 29.7361 45.2215 29.2537 45.0223 28.9333C44.827 28.6091 44.5184 28.447 44.0965 28.447Z" fill="#4091D2"/><path d="M62 17.949H53V39.8837H62" stroke="#4091D2"/><path fill-rule="evenodd" clip-rule="evenodd" d="M86.6667 16.9165H105.333C106.813 16.9165 108 18.1165 108 19.5832V38.2498C108 39.7165 106.813 40.9165 105.333 40.9165H86.6667C85.1867 40.9165 84 39.7165 84 38.2498V19.5832C84 18.1165 85.1867 16.9165 86.6667 16.9165ZM86.6667 28.9165L93.3333 35.5832L105.333 23.5832L103.453 21.6898L93.3333 31.8098L88.5467 27.0365L86.6667 28.9165Z" fill="#0063A3"/><path fill-rule="evenodd" clip-rule="evenodd" d="M86.6667 28.9165L93.3333 35.5832L105.333 23.5832L103.453 21.6898L93.3333 31.8098L88.5467 27.0365L86.6667 28.9165Z" fill="#fff"/><path d="M130 0.833252H139V56.667H130" stroke="#4091D2"/><path d="M152.598 23.6824C153.426 23.6824 154.084 23.9148 154.572 24.3796C155.064 24.8445 155.311 25.4812 155.311 26.2898C155.311 27.2468 155.016 27.9832 154.426 28.4988C153.836 29.0144 152.992 29.2722 151.895 29.2722C150.941 29.2722 150.172 29.1179 149.586 28.8093V27.2449C149.895 27.4089 150.254 27.5437 150.664 27.6492C151.074 27.7507 151.463 27.8015 151.83 27.8015C152.936 27.8015 153.488 27.3484 153.488 26.4421C153.488 25.5789 152.916 25.1472 151.771 25.1472C151.564 25.1472 151.336 25.1687 151.086 25.2117C150.836 25.2507 150.633 25.2937 150.477 25.3406L149.756 24.9539L150.078 20.5886H154.725V22.1238H151.666L151.508 23.8054L151.713 23.7644C151.951 23.7097 152.246 23.6824 152.598 23.6824ZM156.205 25.5164C156.205 23.821 156.563 22.5593 157.278 21.7312C157.996 20.9031 159.071 20.489 160.5 20.489C160.989 20.489 161.371 20.5183 161.649 20.5769V22.0242C161.301 21.946 160.957 21.907 160.617 21.907C159.996 21.907 159.489 22.0007 159.094 22.1882C158.703 22.3757 158.41 22.6531 158.215 23.0203C158.02 23.3875 157.905 23.9089 157.869 24.5847H157.946C158.332 23.9207 158.951 23.5886 159.803 23.5886C160.569 23.5886 161.168 23.8289 161.602 24.3093C162.035 24.7898 162.252 25.4539 162.252 26.3015C162.252 27.2156 161.994 27.9402 161.479 28.4753C160.963 29.0066 160.248 29.2722 159.334 29.2722C158.701 29.2722 158.149 29.1257 157.676 28.8328C157.207 28.5398 156.844 28.1121 156.586 27.5496C156.332 26.9871 156.205 26.3093 156.205 25.5164ZM159.299 27.825C159.686 27.825 159.983 27.696 160.19 27.4382C160.397 27.1765 160.5 26.8054 160.5 26.325C160.5 25.907 160.403 25.5789 160.207 25.3406C160.016 25.0984 159.725 24.9773 159.334 24.9773C158.967 24.9773 158.653 25.0964 158.391 25.3347C158.133 25.573 158.004 25.8503 158.004 26.1667C158.004 26.6316 158.125 27.0242 158.367 27.3445C158.614 27.6648 158.924 27.825 159.299 27.825ZM165.579 29.2722C164.809 29.2722 164.204 28.9734 163.762 28.3757C163.325 27.7781 163.106 26.95 163.106 25.8914C163.106 24.8171 163.329 23.9812 163.774 23.3835C164.223 22.782 164.84 22.4812 165.626 22.4812C166.45 22.4812 167.079 22.8015 167.512 23.4421H167.571C167.481 22.9539 167.436 22.5183 167.436 22.1355V20.0378H169.229V29.155H167.858L167.512 28.3054H167.436C167.03 28.95 166.411 29.2722 165.579 29.2722ZM166.206 27.8484C166.663 27.8484 166.997 27.7156 167.208 27.45C167.422 27.1843 167.54 26.7332 167.559 26.0964V25.9031C167.559 25.2 167.45 24.696 167.231 24.3914C167.016 24.0867 166.665 23.9343 166.176 23.9343C165.778 23.9343 165.467 24.1042 165.245 24.4441C165.026 24.78 164.917 25.2703 164.917 25.9148C164.917 26.5593 165.028 27.0437 165.251 27.3679C165.473 27.6882 165.792 27.8484 166.206 27.8484ZM174.624 29.2722C173.854 29.2722 173.251 28.9929 172.813 28.4343H172.72C172.782 28.9812 172.813 29.2976 172.813 29.3835V32.0378H171.026V22.6042H172.479L172.731 23.4539H172.813C173.231 22.8054 173.85 22.4812 174.671 22.4812C175.444 22.4812 176.05 22.78 176.487 23.3777C176.925 23.9753 177.143 24.8054 177.143 25.8679C177.143 26.5671 177.04 27.1746 176.833 27.6902C176.63 28.2058 176.339 28.5984 175.96 28.8679C175.581 29.1375 175.136 29.2722 174.624 29.2722ZM174.097 23.9109C173.655 23.9109 173.333 24.0476 173.13 24.321C172.927 24.5906 172.821 25.0378 172.813 25.6628V25.8562C172.813 26.5593 172.917 27.0632 173.124 27.3679C173.335 27.6726 173.667 27.825 174.12 27.825C174.921 27.825 175.321 27.1648 175.321 25.8445C175.321 25.2 175.222 24.7175 175.022 24.3972C174.827 24.073 174.518 23.9109 174.097 23.9109Z" fill="#4091D2"/></svg>
